client/src/assets/generatedImages/sprite/MICROPHONE.svg

<svg viewBox="0 0 24 24"><path d="M14.99 11C14.99 12.66 13.66 14 12 14C10.34 14 9 12.66 9 11V5C9 3.34 10.34 2 12 2C13.66 2 15 3.34 15 5L14.99 11ZM12 16.1C14.76 16.1 17.3 14 17.3 11H19C19 14.42 16.28 17.24 13 17.72V21H11V17.72C7.72 17.23 5 14.41 5 11H6.7C6.7 14 9.24 16.1 12 16.1ZM12 4C11.2 4 11 4.66667 11 5V11C11 11.3333 11.2 12 12 12C12.8 12 13 11.3333 13 11V5C13 4.66667 12.8 4 12 4Z"/><path d="M14.99 11C14.99 12.66 13.66 14 12 14C10.34 14 9 12.66 9 11V5C9 3.34 10.34 2 12 2C13.66 2 15 3.34 15 5L14.99 11ZM12 16.1C14.76 16.1 17.3 14 17.3 11H19C19 14.42 16.28 17.24 13 17.72V22H11V17.72C7.72 17.23 5 14.41 5 11H6.7C6.7 14 9.24 16.1 12 16.1Z"/></svg>

<svg viewBox="0 0 24 24"><path d="M15 11a3 3 0 1 1-6 0V5a3 3 0 1 1 6 0v6Zm-3 5.1c2.8 0 5.3-2.1 5.3-5.1H19a7 7 0 0 1-6 6.7V21h-2v-3.3A7 7 0 0 1 5 11h1.7c0 3 2.5 5.1 5.3 5.1ZM12 4c-.8 0-1 .7-1 1v6c0 .3.2 1 1 1s1-.7 1-1V5c0-.3-.2-1-1-1Z"/><path d="M15 11a3 3 0 1 1-6 0V5a3 3 0 1 1 6 0v6Zm-3 5.1c2.8 0 5.3-2.1 5.3-5.1H19a7 7 0 0 1-6 6.7V22h-2v-4.3A7 7 0 0 1 5 11h1.7c0 3 2.5 5.1 5.3 5.1Z"/></svg>
